dist/svgs/crypto-icons/icons/ant.svg

<?xml version="1.0" encoding="UTF-8" standalone="yes"?>
<svg xmlns="http://www.w3.org/2000/svg" xmlns:xlink="http://www.w3.org/1999/xlink" width="512px" height="469.3333333333333px" viewBox="0 0 384 352" version="1.1">
  <g id="surface1">
    <path style=" stroke:none;fill-rule:evenodd;fill:rgb(0%,0%,0%);fill-opacity:1;" d="M 5.199219 100 C 23.332031 84.800781 42 71.332031 61.199219 59.601562 C 80.667969 48.132812 98.933594 38.332031 116 30.199219 C 133.066406 22.066406 147.867188 15.734375 160.398438 11.199219 C 172.933594 6.398438 181.332031 3.332031 185.601562 2 L 192 0 L 198.398438 2 C 202.667969 3.332031 211.199219 6.398438 224 11.199219 C 236.53125 15.734375 251.265625 22.066406 268.199219 30.199219 C 285.132812 38.332031 303.332031 48.265625 322.800781 60 C 342.265625 71.734375 360.933594 85.199219 378.800781 100.398438 L 384 104.398438 L 382.800781 110.800781 C 382 114.800781 379.066406 126.265625 374 145.199219 C 368.933594 164.132812 360.265625 185.46875 348 209.199219 C 340.53125 224.667969 332 239.066406 322.398438 252.398438 C 312.800781 265.734375 302.667969 278 292 289.199219 C 278.398438 303.066406 263.800781 315 248.199219 325 C 232.601562 335 216 343.199219 198.398438 349.601562 L 192 352 L 185.601562 349.601562 C 168.265625 343.199219 151.800781 335 136.199219 325 C 120.601562 315 105.867188 303.066406 92 289.199219 C 81.332031 278 71.199219 265.800781 61.601562 252.601562 C 52 239.398438 43.46875 224.933594 36 209.199219 C 24 186 15.398438 164.734375 10.199219 145.398438 C 5 126.066406 2 114.265625 1.199219 110 L 0 103.601562 Z M 162 103.199219 C 152.398438 103.199219 143.398438 104.265625 135 106.398438 C 126.601562 108.53125 119.199219 111.46875 112.800781 115.199219 L 117.199219 114 L 126.800781 112 C 128.398438 113.867188 129.933594 115.199219 131.398438 116 C 132.867188 116.800781 133.867188 117.332031 134.398438 117.601562 C 144.265625 115.46875 151.332031 112.53125 155.601562 108.800781 Z M 96.800781 261.199219 C 95.46875 259.601562 94.199219 258.066406 93 256.601562 C 91.800781 255.132812 90.667969 253.601562 89.601562 252 C 90.667969 253.601562 91.800781 255.199219 93 256.800781 C 94.199219 258.398438 95.46875 259.867188 96.800781 261.199219 Z M 108 274 Z M 24.398438 114.398438 C 26 121.601562 29.199219 133.066406 34 148.800781 C 38.800781 164.53125 45.867188 181.46875 55.199219 199.601562 C 60 209.199219 65.066406 218.332031 70.398438 227 C 75.734375 235.667969 81.46875 243.867188 87.601562 251.601562 C 112.667969 248.933594 126.734375 242.265625 129.800781 231.601562 L 134.398438 215.601562 L 134.398438 212 L 133.601562 208 L 130.398438 199.199219 C 128.265625 193.332031 125.800781 190.398438 123 190.398438 C 120.199219 190.398438 115.734375 189.066406 109.601562 186.398438 C 108 186.398438 106.53125 186.53125 105.199219 186.800781 C 103.867188 187.066406 102.53125 187.46875 101.199219 188 C 95.332031 191.199219 93.199219 195 94.800781 199.398438 L 97.199219 206 C 90 204.667969 82.867188 200.066406 75.800781 192.199219 C 68.734375 184.332031 65.867188 173.199219 67.199219 158.800781 C 68.53125 144.398438 75.066406 133.53125 86.800781 126.199219 L 104.398438 115.199219 C 103.601562 112 103.398438 109.734375 103.800781 108.398438 L 104.398438 106.398438 C 122.53125 95.199219 139.46875 87.199219 155.199219 82.398438 C 170.933594 77.332031 184.601562 74 196.199219 72.398438 C 207.800781 70.800781 216.933594 70.265625 223.601562 70.800781 L 233.601562 71.601562 L 219.601562 85.601562 L 224 85.601562 C 238.667969 86.132812 252.398438 89.46875 265.199219 95.601562 C 278 101.46875 289.199219 109.46875 298.800781 119.601562 C 308.398438 129.734375 316 141.46875 321.601562 154.800781 C 327.199219 167.867188 330.132812 182 330.398438 197.199219 C 339.199219 179.332031 345.867188 162.933594 350.398438 148 C 354.933594 133.066406 358 121.867188 359.601562 114.398438 L 359.601562 113.199219 C 343.066406 99.601562 325.867188 87.46875 308 76.800781 C 289.867188 66.132812 272.933594 57.066406 257.199219 49.601562 C 241.46875 42.132812 227.734375 36.265625 216 32 C 204.265625 27.46875 196.265625 24.53125 192 23.199219 C 186.667969 24.800781 178 27.867188 166 32.398438 C 154.265625 36.933594 140.601562 42.933594 125 50.398438 C 109.398438 57.867188 92.800781 66.667969 75.199219 76.800781 C 57.867188 87.199219 40.933594 99.199219 24.398438 112.800781 Z M 24.398438 114.398438 "/>
  </g>
</svg>

<svg xmlns="http://www.w3.org/2000/svg" viewBox="0 0 384 352"><path fill-rule="evenodd" d="M5.2 100c18.132-15.2 36.8-28.668 56-40.398 19.468-11.47 37.734-21.27 54.8-29.403 17.066-8.133 31.867-14.465 44.398-19C172.934 6.4 181.332 3.332 185.602 2L192 0l6.398 2c4.27 1.332 12.801 4.398 25.602 9.2 12.531 4.534 27.266 10.866 44.2 19 16.933 8.132 35.132 18.066 54.6 29.8 19.466 11.734 38.134 25.2 56 40.398l5.2 4-1.2 6.403c-.8 4-3.734 15.465-8.8 34.398-5.066 18.934-13.734 40.27-26 64-7.469 15.469-16 29.867-25.602 43.2-9.597 13.335-19.73 25.601-30.398 36.8C278.398 303.066 263.8 315 248.2 325c-15.598 10-32.2 18.2-49.802 24.602L192 352l-6.398-2.398A254.977 254.977 0 01136.199 325c-15.597-10-30.332-21.934-44.199-35.8-10.668-11.2-20.8-23.4-30.398-36.598C52 239.398 43.469 224.934 36 209.199 24 186 15.398 164.734 10.2 145.4 5 126.065 2 114.265 1.2 110L0 103.602zm156.8 3.2c-9.602 0-18.602 1.066-27 3.198-8.398 2.133-15.8 5.07-22.2 8.801l4.4-1.199 9.6-2c1.598 1.867 3.134 3.2 4.598 4 1.47.8 2.47 1.332 3 1.602 9.868-2.133 16.934-5.07 21.204-8.801zm-65.2 158a668.217 668.217 0 01-3.8-4.598c-1.2-1.47-2.332-3-3.398-4.602 1.066 1.602 2.199 3.2 3.398 4.8a41.127 41.127 0 003.8 4.4zM108 274zM24.398 114.398C26 121.602 29.2 133.066 34 148.801c4.8 15.73 11.867 32.668 21.2 50.8C60 209.2 65.065 218.333 70.397 227c5.336 8.668 11.07 16.867 17.204 24.602 25.066-2.668 39.132-9.336 42.199-20l4.597-16V212l-.796-4-3.204-8.8c-2.132-5.868-4.597-8.802-7.398-8.802-2.8 0-7.266-1.332-13.398-4-1.602 0-3.07.133-4.403.403a22.889 22.889 0 00-4 1.199c-5.867 3.2-8 7-6.398 11.398L97.199 206c-7.199-1.332-14.332-5.934-21.398-13.8-7.067-7.868-9.934-19-8.602-33.4 1.332-14.402 7.867-25.269 19.602-32.6l17.597-11c-.796-3.2-1-5.466-.597-6.802l.597-2c18.133-11.199 35.07-19.199 50.801-24 15.735-5.066 29.403-8.398 41-10 11.602-1.597 20.735-2.132 27.403-1.597l10 .8-14 14H224c14.668.532 28.398 3.868 41.2 10 12.8 5.868 24 13.868 33.6 24 9.598 10.133 17.2 21.868 22.802 35.2 5.597 13.066 8.53 27.199 8.796 42.398 8.801-17.867 15.47-34.265 20-49.199 4.536-14.934 7.602-26.133 9.204-33.602V113.2C343.066 99.602 325.867 87.47 308 76.801c-18.133-10.668-35.066-19.735-50.8-27.2C241.468 42.134 227.733 36.267 216 32c-11.734-4.531-19.734-7.469-24-8.8-5.332 1.6-14 4.667-26 9.198-11.734 4.536-25.398 10.536-41 18-15.602 7.47-32.2 16.27-49.8 26.403-17.333 10.398-34.266 22.398-50.802 36zm0 0"/></svg>
